assets/img/hide.svg

<svg width="22" height="22" viewBox="0 0 22 22" fill="none" xmlns="http://www.w3.org/2000/svg">
<path fill-rule="evenodd" clip-rule="evenodd" d="M8.9474 14.316C8.7714 14.316 8.5954 14.249 8.46157 14.1143C7.78507 13.4387 7.41199 12.5404 7.41199 11.5852C7.41199 9.60521 9.02165 7.99463 10.9998 7.99463C11.9513 7.99463 12.8753 8.37871 13.5344 9.0488C13.8002 9.32013 13.7975 9.75463 13.5262 10.0205C13.2557 10.2881 12.8212 10.2835 12.5545 10.014C12.1521 9.6043 11.5856 9.36963 10.9998 9.36963C9.77974 9.36963 8.78699 10.3633 8.78699 11.5852C8.78699 12.1728 9.01707 12.7265 9.43324 13.1426C9.70182 13.4112 9.70182 13.8457 9.43415 14.1143C9.2994 14.249 9.1234 14.316 8.9474 14.316Z" fill="#58546A"/>
<path fill-rule="evenodd" clip-rule="evenodd" d="M11.5201 15.1169C11.1947 15.1169 10.9051 14.8841 10.8446 14.5523C10.7767 14.1792 11.0242 13.8208 11.3982 13.7529C12.2966 13.5898 13.0079 12.8766 13.1692 11.9774C13.2371 11.6043 13.5946 11.3586 13.9676 11.4228C14.3416 11.4897 14.5901 11.8472 14.5231 12.2212C14.2601 13.6814 13.1032 14.8401 11.6439 15.1059C11.6026 15.1133 11.5605 15.1169 11.5201 15.1169Z" fill="#58546A"/>
<mask id="mask0_891_5758" style="mask-type:luminance" maskUnits="userSpaceOnUse" x="1" y="4" width="16" height="14">
<path fill-rule="evenodd" clip-rule="evenodd" d="M1.83337 4.23926H16.5791V17.1625H1.83337V4.23926Z" fill="white"/>
</mask>
<g mask="url(#mask0_891_5758)">
<path fill-rule="evenodd" clip-rule="evenodd" d="M6.09988 17.1625C5.95138 17.1625 5.80196 17.114 5.67546 17.0159C4.12538 15.7985 2.81546 14.0138 1.88963 11.856C1.81446 11.6818 1.81446 11.4856 1.88963 11.3124C2.82554 9.14537 4.14371 7.35146 5.70204 6.12587C8.87921 3.61146 13.1087 3.60321 16.318 6.14421C16.6159 6.37979 16.6663 6.81246 16.4307 7.11037C16.1942 7.40646 15.7634 7.45871 15.4645 7.22221C12.7457 5.06987 9.24313 5.07721 6.55363 7.20571C5.23729 8.24154 4.10704 9.75037 3.27288 11.5855C4.09879 13.4097 5.21896 14.9094 6.52521 15.9342C6.82404 16.1689 6.87538 16.6015 6.64071 16.8995C6.50504 17.0718 6.30338 17.1625 6.09988 17.1625Z" fill="#58546A"/>
</g>
<mask id="mask1_891_5758" style="mask-type:luminance" maskUnits="userSpaceOnUse" x="7" y="8" width="14" height="11">
<path fill-rule="evenodd" clip-rule="evenodd" d="M7.99109 8.0127H20.1667V18.9652H7.99109V8.0127Z" fill="white"/>
</mask>
<g mask="url(#mask1_891_5758)">
<path fill-rule="evenodd" clip-rule="evenodd" d="M11.0002 18.9652C10.1413 18.9652 9.28692 18.8259 8.46192 18.5518C8.10167 18.4317 7.90642 18.0421 8.0265 17.6819C8.14658 17.3207 8.53433 17.1291 8.89642 17.2465C9.58117 17.4747 10.2888 17.5902 11.0002 17.5902C14.1425 17.5902 17.0144 15.3517 18.7277 11.5833C18.3097 10.6675 17.8229 9.83797 17.2784 9.1138C17.0502 8.81038 17.1107 8.37863 17.4141 8.15038C17.7166 7.92213 18.1483 7.98447 18.3766 8.28697C19.0403 9.16788 19.6233 10.1863 20.11 11.3101C20.1861 11.4843 20.1861 11.6823 20.11 11.8555C18.1887 16.3078 14.7833 18.9652 11.0002 18.9652Z" fill="#58546A"/>
</g>
<mask id="mask2_891_5758" style="mask-type:luminance" maskUnits="userSpaceOnUse" x="3" y="3" width="16" height="17">
<path fill-rule="evenodd" clip-rule="evenodd" d="M3.08325 3.66699H18.9173V19.5006H3.08325V3.66699Z" fill="white"/>
</mask>
<g mask="url(#mask2_891_5758)">
<path fill-rule="evenodd" clip-rule="evenodd" d="M3.77052 19.5008C3.59452 19.5008 3.41852 19.4339 3.28469 19.2991C3.01611 19.0305 3.01611 18.596 3.28469 18.3274L17.7442 3.86794C18.0128 3.59936 18.4473 3.59936 18.7159 3.86794C18.9844 4.13652 18.9844 4.57194 18.7159 4.84052L4.25636 19.2991C4.12252 19.4339 3.94652 19.5008 3.77052 19.5008Z" fill="#58546A"/>
</g>
</svg>

<svg xmlns="http://www.w3.org/2000/svg" width="22" height="22" fill="none"><path fill="#58546A" fill-rule="evenodd" d="M8.947 14.316a.68.68 0 0 1-.485-.202 3.55 3.55 0 0 1-1.05-2.529c0-1.98 1.61-3.59 3.588-3.59.951 0 1.875.384 2.534 1.054a.687.687 0 0 1-.98.965A2.2 2.2 0 0 0 11 9.37c-1.22 0-2.213.993-2.213 2.215 0 .588.23 1.141.646 1.558a.687.687 0 0 1-.486 1.173M11.52 15.117a.688.688 0 0 1-.122-1.364 2.21 2.21 0 0 0 1.771-1.776.688.688 0 0 1 1.354.244 3.59 3.59 0 0 1-2.88 2.885 1 1 0 0 1-.123.01" clip-rule="evenodd"/><mask id="a" width="16" height="14" x="1" y="4" maskUnits="userSpaceOnUse" style="mask-type:luminance"><path fill="#fff" fill-rule="evenodd" d="M1.833 4.24H16.58v12.923H1.833z" clip-rule="evenodd"/></mask><g mask="url(#a)"><path fill="#58546A" fill-rule="evenodd" d="M6.1 17.163a.7.7 0 0 1-.425-.147c-1.55-1.217-2.86-3.002-3.785-5.16a.68.68 0 0 1 0-.544c.936-2.167 2.254-3.96 3.812-5.186 3.177-2.515 7.407-2.523 10.616.018a.688.688 0 1 1-.854 1.078c-2.718-2.152-6.22-2.145-8.91-.016-1.317 1.036-2.447 2.544-3.281 4.38.826 1.824 1.946 3.323 3.252 4.348a.687.687 0 0 1-.425 1.229" clip-rule="evenodd"/></g><mask id="b" width="14" height="11" x="7" y="8" maskUnits="userSpaceOnUse" style="mask-type:luminance"><path fill="#fff" fill-rule="evenodd" d="M7.991 8.013h12.176v10.952H7.99z" clip-rule="evenodd"/></mask><g mask="url(#b)"><path fill="#58546A" fill-rule="evenodd" d="M11 18.965a8 8 0 0 1-2.538-.413.688.688 0 0 1 .434-1.305A6.6 6.6 0 0 0 11 17.59c3.143 0 6.014-2.238 7.728-6.007a13.3 13.3 0 0 0-1.45-2.47.688.688 0 0 1 1.099-.826c.663.88 1.246 1.9 1.733 3.023a.68.68 0 0 1 0 .545c-1.921 4.453-5.327 7.11-9.11 7.11" clip-rule="evenodd"/></g><mask id="c" width="16" height="17" x="3" y="3" maskUnits="userSpaceOnUse" style="mask-type:luminance"><path fill="#fff" fill-rule="evenodd" d="M3.083 3.667h15.834v15.834H3.083z" clip-rule="evenodd"/></mask><g mask="url(#c)"><path fill="#58546A" fill-rule="evenodd" d="M3.77 19.5a.687.687 0 0 1-.486-1.173l14.46-14.46a.687.687 0 1 1 .972.974L4.256 19.299a.68.68 0 0 1-.485.202" clip-rule="evenodd"/></g></svg>
